dist/img/interships/internships_s3_icon_1.svg

<svg width="82" height="81" viewBox="0 0 82 81" fill="none" xmlns="http://www.w3.org/2000/svg">
<g clip-path="url(#clip0_2872_2101)">
<path d="M61.215 38.875C60.295 38.875 59.505 39.655 59.505 40.565C59.505 50.595 51.205 58.795 41.065 58.795C40.145 58.795 39.355 59.575 39.355 60.485C39.355 61.395 40.145 62.175 41.065 62.175C53.055 62.175 62.935 52.535 62.935 40.555C62.925 39.655 62.135 38.875 61.215 38.875Z" fill="#08090A"/>
<path d="M42.775 20.645C42.775 19.735 41.985 18.955 41.065 18.955C29.075 18.955 19.195 28.595 19.195 40.575C19.195 41.485 19.985 42.265 20.905 42.265C21.825 42.265 22.615 41.485 22.615 40.575C22.615 30.545 30.915 22.345 41.055 22.345C41.985 22.335 42.775 21.555 42.775 20.645Z" fill="#08090A"/>
<path d="M79.655 33.925H70.565C69.775 30.665 68.455 27.545 66.615 24.675L73.065 18.295C73.725 17.645 73.725 16.605 73.065 15.945L65.955 8.915C65.295 8.265 64.245 8.265 63.585 8.915L57.135 15.295C54.235 13.475 51.075 12.165 47.785 11.385V2.405C47.785 1.495 46.995 0.714996 46.075 0.714996H36.055C35.135 0.714996 34.345 1.495 34.345 2.405V11.395C31.055 12.175 27.895 13.475 24.995 15.305L18.535 8.925C17.875 8.275 16.825 8.275 16.165 8.925L9.045 15.955C8.385 16.605 8.385 17.645 9.045 18.305L15.495 24.685C13.655 27.555 12.335 30.675 11.545 33.935H2.455C1.535 33.925 0.744995 34.705 0.744995 35.615V45.515C0.744995 46.425 1.535 47.205 2.455 47.205H11.545C12.335 50.465 13.655 53.585 15.365 56.455L8.90499 62.835C8.245 63.485 8.245 64.525 8.90499 65.185L16.015 72.215C16.675 72.865 17.725 72.865 18.385 72.215L24.835 65.835C27.735 67.655 30.895 68.965 34.195 69.615V78.605C34.195 79.515 34.985 80.295 35.905 80.295H45.915C46.835 80.295 47.625 79.515 47.625 78.605V69.615C50.915 68.835 54.085 67.535 56.975 65.835L63.435 72.215C64.095 72.865 65.145 72.865 65.805 72.215L72.915 65.185C73.575 64.535 73.575 63.495 72.915 62.835L66.455 56.455C68.305 53.585 69.615 50.465 70.405 47.205H79.495C80.415 47.205 81.205 46.425 81.205 45.515V35.615C81.375 34.705 80.585 33.925 79.655 33.925ZM77.945 43.825H69.115C68.325 43.825 67.665 44.345 67.405 45.255C66.745 49.035 65.295 52.545 63.055 55.675C62.525 56.325 62.665 57.235 63.185 57.755L69.375 63.875L64.635 68.565L58.445 62.445C57.915 61.925 56.995 61.795 56.335 62.315C53.175 64.525 49.615 65.965 45.795 66.615C45.005 66.745 44.345 67.395 44.345 68.305V77.035H37.755V68.305C37.755 67.525 37.225 66.875 36.305 66.615C32.485 65.965 28.925 64.535 25.765 62.315C25.105 61.795 24.185 61.925 23.655 62.445L17.465 68.565L12.725 63.875L18.915 57.755C19.445 57.235 19.575 56.325 19.045 55.675C16.805 52.545 15.355 49.035 14.695 45.255C14.565 44.475 13.905 43.825 12.985 43.825H4.175V37.315H13.005C13.795 37.315 14.455 36.795 14.715 35.885C15.375 32.105 16.825 28.595 19.065 25.465C19.595 24.815 19.455 23.905 18.935 23.385L12.745 17.265L17.485 12.575L23.675 18.695C24.205 19.215 25.125 19.345 25.785 18.825C28.945 16.615 32.505 15.175 36.325 14.525C37.115 14.395 37.775 13.745 37.775 12.835V4.105H44.365V12.835C44.365 13.615 44.895 14.265 45.815 14.525C49.635 15.175 53.195 16.605 56.355 18.825C57.015 19.345 57.935 19.215 58.465 18.695L64.655 12.575L69.395 17.265L63.205 23.385C62.675 23.905 62.545 24.815 63.075 25.465C65.315 28.595 66.765 32.105 67.425 35.885C67.555 36.665 68.215 37.315 69.135 37.315H77.965V43.825H77.945Z" fill="#08090A"/>
<path d="M51.075 50.465V45.515C51.075 41.735 48.965 38.485 45.935 36.785C47.125 35.615 47.785 34.055 47.785 32.225C47.785 28.575 44.755 25.585 41.065 25.585C37.375 25.585 34.345 28.575 34.345 32.225C34.345 34.045 35.005 35.615 36.185 36.785C33.025 38.475 31.045 41.735 31.045 45.515V50.465C31.045 51.375 31.835 52.155 32.755 52.155H49.485C50.415 52.155 51.075 51.375 51.075 50.465ZM37.765 32.235C37.765 30.415 39.215 28.975 41.055 28.975C42.895 28.975 44.345 30.405 44.345 32.235C44.345 34.055 42.895 35.495 41.055 35.495C39.215 35.615 37.765 34.055 37.765 32.235ZM47.775 48.905H34.335V45.645C34.335 41.995 37.365 39.005 41.055 39.005C44.745 39.005 47.775 42.005 47.775 45.645V48.905Z" fill="#08090A"/>
</g>
<defs>
<clipPath id="clip0_2872_2101">
<rect width="80.51" height="79.57" fill="white" transform="translate(0.744995 0.714996)"/>
</clipPath>
</defs>
</svg>

<svg width="82" height="81" viewBox="0 0 82 81" fill="none" xmlns="http://www.w3.org/2000/svg"><g clip-path="url(#clip0_2872_2101)" fill="#08090A"><path d="M61.215 38.875c-.92 0-1.71.78-1.71 1.69 0 10.03-8.3 18.23-18.44 18.23-.92 0-1.71.78-1.71 1.69 0 .91.79 1.69 1.71 1.69 11.99 0 21.87-9.64 21.87-21.62-.01-.9-.8-1.68-1.72-1.68zm-18.44-18.23c0-.91-.79-1.69-1.71-1.69-11.99 0-21.87 9.64-21.87 21.62 0 .91.79 1.69 1.71 1.69.92 0 1.71-.78 1.71-1.69 0-10.03 8.3-18.23 18.44-18.23.93-.01 1.72-.79 1.72-1.7z"/><path d="M79.655 33.925h-9.09a30.35 30.35 0 00-3.95-9.25l6.45-6.38c.66-.65.66-1.69 0-2.35l-7.11-7.03c-.66-.65-1.71-.65-2.37 0l-6.45 6.38c-2.9-1.82-6.06-3.13-9.35-3.91v-8.98c0-.91-.79-1.69-1.71-1.69h-10.02c-.92 0-1.71.78-1.71 1.69v8.99a30.8 30.8 0 00-9.35 3.91l-6.46-6.38c-.66-.65-1.71-.65-2.37 0l-7.12 7.03c-.66.65-.66 1.69 0 2.35l6.45 6.38a30.35 30.35 0 00-3.95 9.25h-9.09c-.92-.01-1.71.77-1.71 1.68v9.9c0 .91.79 1.69 1.71 1.69h9.09c.79 3.26 2.11 6.38 3.82 9.25l-6.46 6.38c-.66.65-.66 1.69 0 2.35l7.11 7.03c.66.65 1.71.65 2.37 0l6.45-6.38c2.9 1.82 6.06 3.13 9.36 3.78v8.99c0 .91.79 1.69 1.71 1.69h10.01c.92 0 1.71-.78 1.71-1.69v-8.99c3.29-.78 6.46-2.08 9.35-3.78l6.46 6.38c.66.65 1.71.65 2.37 0l7.11-7.03c.66-.65.66-1.69 0-2.35l-6.46-6.38c1.85-2.87 3.16-5.99 3.95-9.25h9.09c.92 0 1.71-.78 1.71-1.69v-9.9c.17-.91-.62-1.69-1.55-1.69zm-1.71 9.9h-8.83c-.79 0-1.45.52-1.71 1.43-.66 3.78-2.11 7.29-4.35 10.42-.53.65-.39 1.56.13 2.08l6.19 6.12-4.74 4.69-6.19-6.12c-.53-.52-1.45-.65-2.11-.13-3.16 2.21-6.72 3.65-10.54 4.3-.79.13-1.45.78-1.45 1.69v8.73h-6.59v-8.73c0-.78-.53-1.43-1.45-1.69-3.82-.65-7.38-2.08-10.54-4.3-.66-.52-1.58-.39-2.11.13l-6.19 6.12-4.74-4.69 6.19-6.12c.53-.52.66-1.43.13-2.08-2.24-3.13-3.69-6.64-4.35-10.42-.13-.78-.79-1.43-1.71-1.43h-8.81v-6.51h8.83c.79 0 1.45-.52 1.71-1.43.66-3.78 2.11-7.29 4.35-10.42.53-.65.39-1.56-.13-2.08l-6.19-6.12 4.74-4.69 6.19 6.12c.53.52 1.45.65 2.11.13 3.16-2.21 6.72-3.65 10.54-4.3.79-.13 1.45-.78 1.45-1.69v-8.73h6.59v8.73c0 .78.53 1.43 1.45 1.69 3.82.65 7.38 2.08 10.54 4.3.66.52 1.58.39 2.11-.13l6.19-6.12 4.74 4.69-6.19 6.12c-.53.52-.66 1.43-.13 2.08 2.24 3.13 3.69 6.64 4.35 10.42.13.78.79 1.43 1.71 1.43h8.83v6.51h-.02z"/><path d="M51.075 50.465v-4.95c0-3.78-2.11-7.03-5.14-8.73 1.19-1.17 1.85-2.73 1.85-4.56 0-3.65-3.03-6.64-6.72-6.64s-6.72 2.99-6.72 6.64c0 1.82.66 3.39 1.84 4.56-3.16 1.69-5.14 4.95-5.14 8.73v4.95c0 .91.79 1.69 1.71 1.69h16.73c.93 0 1.59-.78 1.59-1.69zm-13.31-18.23c0-1.82 1.45-3.26 3.29-3.26s3.29 1.43 3.29 3.26c0 1.82-1.45 3.26-3.29 3.26-1.84.12-3.29-1.44-3.29-3.26zm10.01 16.67h-13.44v-3.26c0-3.65 3.03-6.64 6.72-6.64s6.72 3 6.72 6.64v3.26z"/></g><defs><clipPath id="clip0_2872_2101"><path fill="#fff" transform="translate(.745 .715)" d="M0 0h80.51v79.57H0z"/></clipPath></defs></svg>
